images/fox.svg

<svg id="eOesofyNYGU1" xmlns="http://www.w3.org/2000/svg" xmlns:xlink="http://www.w3.org/1999/xlink" viewBox="0 0 80 87" shape-rendering="geometricPrecision" text-rendering="geometricPrecision"><style><![CDATA[#eOesofyNYGU3_tr {animation: eOesofyNYGU3_tr__tr 3000ms linear infinite normal forwards}@keyframes eOesofyNYGU3_tr__tr { 0% {transform: translate(45px,20.916302px) rotate(0.489672deg)} 30% {transform: translate(45px,20.916302px) rotate(1.774182deg)} 46.666667% {transform: translate(45px,20.916302px) rotate(4.18deg)} 63.333333% {transform: translate(45px,20.916302px) rotate(-5.710507deg)} 76.666667% {transform: translate(45px,20.916302px) rotate(0.49deg)} 100% {transform: translate(45px,20.916302px) rotate(0.49deg)}} #eOesofyNYGU7_tr {animation: eOesofyNYGU7_tr__tr 3000ms linear infinite normal forwards}@keyframes eOesofyNYGU7_tr__tr { 0% {transform: translate(67.22255px,20.32933px) rotate(4.179497deg)} 10% {transform: translate(67.22255px,20.32933px) rotate(4.179497deg)} 30% {transform: translate(67.22255px,20.32933px) rotate(-0.55deg)} 53.333333% {transform: translate(67.22255px,20.32933px) rotate(-11.211137deg)} 63.333333% {transform: translate(67.22255px,20.32933px) rotate(4.179497deg)} 73.333333% {transform: translate(67.22255px,20.32933px) rotate(-0.551214deg)} 83.333333% {transform: translate(67.22255px,20.32933px) rotate(4.18deg)} 100% {transform: translate(67.22255px,20.32933px) rotate(4.18deg)}} #eOesofyNYGU11_tr {animation: eOesofyNYGU11_tr__tr 3000ms linear infinite normal forwards}@keyframes eOesofyNYGU11_tr__tr { 0% {transform: translate(54px,60.897766px) rotate(14.02822deg)} 23.333333% {transform: translate(54px,60.897766px) rotate(-7.582836deg)} 50% {transform: translate(54px,60.897766px) rotate(3.222692deg)} 76.666667% {transform: translate(54px,60.897766px) rotate(-7.575833deg)} 100% {transform: translate(54px,60.897766px) rotate(14.292612deg)}} #eOesofyNYGU32_ts {animation: eOesofyNYGU32_ts__ts 3000ms linear infinite normal forwards}@keyframes eOesofyNYGU32_ts__ts { 0% {transform: translate(56.00065px,43.000198px) scale(1,0.968411)} 10% {transform: translate(56.00065px,43.000198px) scale(1,0.968411)} 16.666667% {transform: translate(56.00065px,43.000198px) scale(1,0.990478)} 23.333333% {transform: translate(56.00065px,43.000198px) scale(1,0.417514)} 30% {transform: translate(56.00065px,43.000198px) scale(1,0.968411)} 36.666667% {transform: translate(56.00065px,43.000198px) scale(1,0.968411)} 56.666667% {transform: translate(56.00065px,43.000198px) scale(1,0.990478)} 63.333333% {transform: translate(56.00065px,43.000198px) scale(1,0.417514)} 70% {transform: translate(56.00065px,43.000198px) scale(1,0.968411)} 86.666667% {transform: translate(56.00065px,43.000198px) scale(1,0.990478)} 93.333333% {transform: translate(56.00065px,43.000198px) scale(1,0.417514)} 100% {transform: translate(56.00065px,43.000198px) scale(1,0.968411)}}]]></style><g transform="translate(1.9651 0)"><g id="eOesofyNYGU3_tr" transform="translate(45,20.916302) rotate(0.489672)"><g transform="translate(-45.017886,-21.000051)"><path d="M51.677,18.5028L40.3112,26.677L32.137,15.3112c3.0144-2.1679,6.7665-3.0496,10.431-2.4511c3.6645.5986,6.9411,2.6283,9.109,5.6427v0Z" fill="#f26f49"/><path d="M51.2062,18.8414L40.3113,26.677l-5.8388-8.1184c1.4926-1.0736,3.182-1.8427,4.9718-2.2634s3.6448-.4847,5.4594-.1884c2.2938.3792,4.4586,1.3185,6.3025,2.7346v0Z" fill="#f28649"/><path d="M32.137,15.3112c3.0144-2.1679,6.7665-3.0496,10.431-2.4511c3.6645.5986,6.9411,2.6283,9.109,5.6427v0L40.3112,26.677L32.137,15.3112Z" fill="none" stroke="#181818" stroke-width="0.3" stroke-linecap="round" stroke-linejoin="round"/></g></g><g id="eOesofyNYGU7_tr" transform="translate(67.22255,20.32933) rotate(4.179497)"><g transform="translate(-67.22255,-20.329329)"><path d="M78.0261,16.9229L69.4985,28.026L58.3953,19.4984c2.2617-2.9447,5.6005-4.8704,9.282-5.3534s7.4041.5162,10.3488,2.7779v0Z" fill="#f26f49"/><path d="M75.5897,20.0954l-6.0912,7.9308-10.6431-8.1744c2.4435-1.767,5.3923-2.6979,8.4075-2.654s5.9357,1.0601,8.3268,2.8976Z" fill="#f28649"/><path d="M69.4287,28.0349L58.3864,19.4287c2.2825-2.9286,5.6349-4.8306,9.3197-5.2874s7.4002.5688,10.3288,2.8513v0L69.4287,28.0349Z" fill="none" stroke="#181818" stroke-width="0.3" stroke-linecap="round" stroke-linejoin="round"/></g></g><g id="eOesofyNYGU11_tr" transform="translate(54,60.897766) rotate(14.02822)"><g transform="translate(-54,-60.897766)"><path d="M16.8178,19.3268c-4.1703,5.4963-6.571,12.5997-6.7946,20.1043s1.7437,14.9479,5.568,21.0665C18.9306,65.8381,23.5177,69.9,28.751,72.1504s10.8683,2.5845,16.1662.9582s10.0113-5.1369,13.5221-10.0714s5.6551-11.0627,6.1517-17.5808c.1238-1.595.1462-3.2024.0668-4.8087L40.7914,58.472L29.524,37.6664l-.6769-.1068c-1.6765-.2689-3.2987-.9455-4.7651-1.9875s-2.7454-2.4271-3.7569-4.0684-1.7339-3.5035-2.1217-5.4702-.4329-3.9953-.1324-5.959c.0369-.2125.0021-.4362-.0968-.6234-.063-.1122-.1464-.2065-.2436-.2757s-.2059-.1114-.3175-.1234-.2233.0065-.3265.0541-.1951.1231-.2688.2207Z" fill="#f27449"/><path d="M16.8178,19.3267c-2.4403,3.2077-4.2902,6.9946-5.4366,11.1288-.5942,7.9333,1.2884,15.9374,5.2898,22.4901c4.0013,6.5526,9.8422,11.1966,16.4119,13.0487c6.5696,1.8521,13.4096.7831,19.219-3.0037s10.1831-10.0272,12.2891-17.5343c.1238-1.595.1462-3.2024.0668-4.8087L40.7914,58.4719L29.524,37.6663l-.6769-.1067c-1.1287-.1824-2.2345-.5562-3.2835-1.1099-2.6225-1.3407-4.8024-3.706-6.1707-6.6955s-1.841-6.4196-1.338-9.7095c.0369-.2125.0021-.4362-.0968-.6234-.0652-.107-.1493-.1959-.2461-.2603s-.2038-.1024-.3132-.1115-.2184.0111-.3189.0591-.1901.1225-.2621.2181v0Z" fill="#f28649"/><path d="M25.564,36.4497c-1.1843,5.5669-.4735,11.5306,1.9798,16.6103c0,0,0,0,0,0l.5365.9907c2.2696,4.1908,16.2013,8.4521,19.4753,6.327.2775-.2073.555-.4146.8162-.6096c3.885-2.889,6.6668-7.4513,7.7895-12.7747L40.7918,58.4719L29.5243,37.6663l-.6768-.1067c-1.1288-.1824-2.2346-.5562-3.2835-1.1099v0Z" fill="#f27449"/><path d="M13.7233,24.3234c-2.1481,4.3116-3.404,9.1924-3.6673,14.2522-.26319,5.0598.4735,10.1583,2.1514,14.8878s4.2501,8.9589,7.5113,12.35s7.1209,5.8499,11.2704,7.1798s8.4737,1.494,12.627.4792c4.1532-1.0148,8.0204-3.1803,11.2922-6.3235s5.8575-7.1769,7.5504-11.7785s2.446-9.6435,2.1992-14.7227L40.7915,58.4719L29.5241,37.6664l-.4737-.0915c-2.4241-.4553-4.6779-1.8477-6.4109-3.9606-1.7331-2.1129-2.8482-4.8279-3.172-7.7228v0c-.0862-.7642-.3699-1.4843-.8115-2.0599s-1.0191-.9778-1.6518-1.1505-1.2889-.1073-1.8771.1871c-.5883.2945-1.079.8032-1.4038,1.4552v0Z" fill="none" stroke="#181818" stroke-width="0.3" stroke-linecap="round" stroke-linejoin="round"/><path d="M3.22536,19.1638c0,0,11.66114-1.7812,4.51517,15.1245l7.80427,7.6235c.5399.488,8.5115-8.0382,8.5115-8.0382s-.8647-8.3838-3.2184-12.7299c-2.5157-4.6454-8.9499-8.4495-17.61254-1.9799Z" fill="#fff" stroke="#181818" stroke-width="0.3" stroke-linecap="round" stroke-linejoin="round"/></g></g><g><path d="M68.964,69.0003l-8.3923-.1163c-2.4388-.0338-4.848-.6307-7.0901-1.7566s-4.2732-2.7587-5.9773-4.8053c-1.7042-2.0466-3.0479-4.4669-3.9546-7.1226s-1.3584-5.495-1.3296-8.3555l.0991-9.8437l26.9633.3736-.3185,31.6264Z" fill="#f26f49"/><path d="M68.964,69.0003l-8.3923-.1163c-2.4388-.0338-4.848-.6307-7.0901-1.7566s-4.2732-2.7587-5.9773-4.8053c-1.7042-2.0466-3.0479-4.4669-3.9546-7.1226s-1.3584-5.495-1.3296-8.3555l.0991-9.8437l26.9633.3736-.3185,31.6264Z" fill="none" stroke="#181818" stroke-width="0.3" stroke-linecap="round" stroke-linejoin="round"/></g><g><path d="M72,32c0,.3042,0,.6084,0,.8947-.2159,4.2015-1.982,8.1737-4.9568,11.1485s-6.947,4.7409-11.1485,4.9568c0,0,0,0,0,0L55,49c-4.3579.006-8.5516-1.6617-11.7152-4.6588s-5.0554-7.0947-5.2848-11.4465c0-.3042,0-.6084,0-.8947c0-4.5087,1.7911-8.8327,4.9792-12.0208s7.5121-4.9792,12.0208-4.9792s8.8327,1.7911,12.0208,4.9792s4.9792,7.5121,4.9792,12.0208v0Z" fill="#f26f49"/><path d="M70,29.9948c0,.3401,0,.6802,0,1.0003-.2058,4.697-1.8894,9.1377-4.7253,12.4634C62.4389,46.7842,58.6523,48.7586,54.647,49c0,0,0,0,0,0h-.8529c-3.4637.0073-6.8373-1.294-9.6212-3.711C42.2744,42.2991,41.1706,38.7186,41,34.9962c0-.3401,0-.6802,0-1.0003.0015-3.516.8346-6.9626,2.4067-9.9564s3.8216-5.4176,6.4982-7.0016s5.6755-2.2662,8.663-1.9706s5.8466,1.5571,8.2591,3.6445c2.0663,3.2621,3.1792,7.2194,3.173,11.283Z" fill="#f28649"/><g><path d="M71.8949,33.9514c-.4157,4.062-2.2381,7.8392-5.1393,10.6516s-6.6906,4.4756-10.6861,4.6899c0-.1534,0-.3068,0-.4602.3271-13.9788,14.57-14.8271,15.8254-14.8813Z" fill="#fff"/><path d="M38.4757,33.9514c1.3527.0542,17.2488.9025,17.6025,14.8633c0,.1443,0,.2978,0,.4512h-.8841c-4.1472.0042-8.1493-1.5578-11.2359-4.3852s-5.0394-6.7203-5.4825-10.9293v0Z" fill="#fff"/></g><g><path d="M38.4754,33.9514c0-.2888-.053-.5866-.0707-.9024s0-.6137,0-.9025c0-4.5475,1.7698-8.9087,4.9199-12.1243c3.1502-3.2156,7.4227-5.0221,11.8777-5.0221s8.7275,1.8065,11.8777,5.0221c3.1501,3.2156,4.9199,7.5768,4.9199,12.1243c0,.3069,0,.6137,0,.9025s0,.5956-.0707.9024c-.4167,4.0679-2.2442,7.8497-5.1526,10.6629s-6.7062,4.4727-10.7079,4.6787v0h-.8841c-4.1497.0012-8.153-1.5655-11.2382-4.3983s-5.0342-6.7309-5.471-10.9433v0Z" fill="none" stroke="#181818" stroke-width="0.3" stroke-linecap="round" stroke-linejoin="round"/><path d="M38.3871,33.9514h.0884c1.3526.0542,17.2485.9025,17.6021,14.8633c0,.1534,0,.3068,0,.4602" fill="none" stroke="#181818" stroke-width="0.3" stroke-linecap="round" stroke-linejoin="round"/><path d="M71.9822,33.9514h-.0884c-1.2554,0-15.498.9025-15.8163,14.8542c0,.1444,0,.2978,0,.4512" fill="none" stroke="#181818" stroke-width="0.3" stroke-linecap="round" stroke-linejoin="round"/></g><path d="M56.5,50c1.3807,0,2.5-.4477,2.5-1s-1.1193-1-2.5-1-2.5.4477-2.5,1s1.1193,1,2.5,1Z" fill="#181818"/><path d="M45,26c1.4551-2.7428,3.5533-4.841,6-6" fill="none" stroke="#181818" stroke-width="0.3" stroke-linecap="round" stroke-linejoin="round"/></g><g id="eOesofyNYGU32_ts" transform="translate(56.00065,43.000198) scale(1,0.968411)"><g transform="translate(-55.00065,-43.000198)"><path d="M48.7812,44.0002c.458,0,.8292-.4477.8292-1s-.3712-1-.8292-1-.8293.4477-.8293,1s.3713,1,.8293,1Z" fill="#181818"/><path d="M61.2201,44.0002c.458,0,.8293-.4477.8293-1s-.3713-1-.8293-1-.8292.4477-.8292,1s.3712,1,.8292,1Z" fill="#181818"/></g></g></g></svg>

<svg width="240" viewBox="0 0 80 87" fill="none" xmlns="http://www.w3.org/2000/svg">
<g id="Day 9">
<g class="left-ear">
<path id="&#60;Path&#62;" d="M51.677 18.5028L40.3112 26.677L32.137 15.3112C35.1514 13.1433 38.9035 12.2616 42.568 12.8601C46.2325 13.4587 49.5091 15.4884 51.677 18.5028V18.5028Z" fill="#F26F49"/>
<path id="&#60;Path&#62;_2" d="M51.2062 18.8414L40.3113 26.677L34.4725 18.5586C35.9651 17.485 37.6545 16.7159 39.4443 16.2952C41.234 15.8745 43.0891 15.8105 44.9037 16.1068C47.1975 16.486 49.3623 17.4253 51.2062 18.8414V18.8414Z" fill="#F28649"/>
<path id="&#60;Rectangle&#62;" d="M32.137 15.3112C35.1514 13.1433 38.9035 12.2616 42.568 12.8601C46.2325 13.4587 49.5091 15.4884 51.677 18.5028V18.5028L40.3112 26.677L32.137 15.3112Z" stroke="#181818" stroke-width="0.3" stroke-linecap="round" stroke-linejoin="round"/>
</g>
<g id="rigth-ear">
<path id="&#60;Path&#62;_3" d="M78.0261 16.9229L69.4985 28.026L58.3953 19.4984C60.657 16.5537 63.9958 14.628 67.6773 14.145C71.3588 13.662 75.0814 14.6612 78.0261 16.9229V16.9229Z" fill="#F26F49"/>
<path id="&#60;Path&#62;_4" d="M75.5897 20.0954L69.4985 28.0262L58.8554 19.8518C61.2989 18.0848 64.2477 17.1539 67.2629 17.1978C70.2781 17.2417 73.1986 18.2579 75.5897 20.0954Z" fill="#F28649"/>
<path id="&#60;Rectangle&#62;_2" d="M69.4287 28.0349L58.3864 19.4287C60.6689 16.5001 64.0213 14.5981 67.7061 14.1413C71.391 13.6844 75.1063 14.7101 78.0349 16.9926V16.9926L69.4287 28.0349Z" stroke="#181818" stroke-width="0.3" stroke-linecap="round" stroke-linejoin="round"/>
</g>
<g id="tail">
<path id="&#60;Path&#62;_5" d="M16.8178 19.3268C12.6475 24.8231 10.2468 31.9265 10.0232 39.4311C9.79965 46.9357 11.7669 54.379 15.5912 60.4976C18.9306 65.8381 23.5177 69.9 28.751 72.1504C33.9843 74.4009 39.6193 74.7349 44.9172 73.1086C50.2151 71.4823 54.9285 67.9717 58.4393 63.0372C61.9501 58.1026 64.0944 51.9745 64.591 45.4564C64.7148 43.8614 64.7372 42.254 64.6578 40.6477L40.7914 58.472L29.524 37.6664L28.8471 37.5596C27.1706 37.2907 25.5484 36.6141 24.082 35.5721C22.6156 34.53 21.3366 33.145 20.3251 31.5037C19.3135 29.8624 18.5912 28.0002 18.2034 26.0335C17.8155 24.0669 17.7705 22.0382 18.071 20.0745C18.1079 19.862 18.0731 19.6383 17.9742 19.4511C17.9112 19.3389 17.8278 19.2446 17.7306 19.1754C17.6333 19.1062 17.5247 19.064 17.4131 19.052C17.3015 19.04 17.1898 19.0585 17.0866 19.1061C16.9834 19.1538 16.8915 19.2292 16.8178 19.3268Z" fill="#F27449"/>
<path id="&#60;Path&#62;_6" d="M16.8178 19.3267C14.3775 22.5344 12.5276 26.3213 11.3812 30.4555C10.787 38.3888 12.6696 46.3929 16.671 52.9456C20.6723 59.4982 26.5132 64.1422 33.0829 65.9943C39.6525 67.8464 46.4925 66.7774 52.3019 62.9906C58.1114 59.2038 62.485 52.9634 64.591 45.4563C64.7148 43.8613 64.7372 42.2539 64.6578 40.6476L40.7914 58.4719L29.524 37.6663L28.8471 37.5596C27.7184 37.3772 26.6126 37.0034 25.5636 36.4497C22.9411 35.109 20.7612 32.7437 19.3929 29.7542C18.0246 26.7647 17.5519 23.3346 18.0549 20.0447C18.0918 19.8322 18.057 19.6085 17.9581 19.4213C17.8929 19.3143 17.8088 19.2254 17.712 19.161C17.6152 19.0967 17.5082 19.0586 17.3988 19.0495C17.2894 19.0404 17.1804 19.0606 17.0799 19.1086C16.9794 19.1566 16.8898 19.2311 16.8178 19.3267V19.3267Z" fill="#F28649"/>
<path id="&#60;Path&#62;_7" d="M25.564 36.4497C24.3797 42.0166 25.0905 47.9803 27.5438 53.06C27.5438 53.06 27.5438 53.06 27.5438 53.06L28.0803 54.0507C30.3499 58.2415 44.2816 62.5028 47.5556 60.3777C47.8331 60.1704 48.1106 59.9631 48.3718 59.7681C52.2568 56.8791 55.0386 52.3168 56.1613 46.9934L40.7918 58.4719L29.5243 37.6663L28.8475 37.5596C27.7187 37.3772 26.6129 37.0034 25.564 36.4497V36.4497Z" fill="#F27449"/>
<path id="&#60;Path&#62;_8" d="M13.7233 24.3234C11.5752 28.635 10.3193 33.5158 10.056 38.5756C9.79281 43.6354 10.5295 48.7339 12.2074 53.4634C13.8852 58.1929 16.4575 62.4223 19.7187 65.8134C22.9799 69.2045 26.8396 71.6633 30.9891 72.9932C35.1385 74.3231 39.4628 74.4872 43.6161 73.4724C47.7693 72.4576 51.6365 70.2921 54.9083 67.1489C58.18 64.0057 60.7658 59.972 62.4587 55.3704C64.1516 50.7688 64.9047 45.7269 64.6579 40.6477L40.7915 58.4719L29.5241 37.6664L29.0504 37.5749C26.6263 37.1196 24.3725 35.7272 22.6395 33.6143C20.9064 31.5014 19.7913 28.7864 19.4675 25.8915V25.8915C19.3813 25.1273 19.0976 24.4072 18.656 23.8316C18.2144 23.256 17.6369 22.8538 17.0042 22.6811C16.3716 22.5084 15.7153 22.5738 15.1271 22.8682C14.5388 23.1627 14.0481 23.6714 13.7233 24.3234V24.3234Z" stroke="#181818" stroke-width="0.3" stroke-linecap="round" stroke-linejoin="round"/>
<path id="&#60;Path&#62;_9" d="M3.22536 19.1638C3.22536 19.1638 14.8865 17.3826 7.74053 34.2883L15.5448 41.9118C16.0847 42.3998 24.0563 33.8736 24.0563 33.8736C24.0563 33.8736 23.1916 25.4898 20.8379 21.1437C18.3222 16.4983 11.888 12.6942 3.22536 19.1638Z" fill="white" stroke="#181818" stroke-width="0.3" stroke-linecap="round" stroke-linejoin="round"/>
</g>
<g id="body">
<path id="&#60;Rectangle&#62;_3" d="M68.964 69.0003L60.5717 68.884C58.1329 68.8502 55.7237 68.2533 53.4816 67.1274C51.2394 66.0015 49.2084 64.3687 47.5043 62.3221C45.8001 60.2755 44.4564 57.8552 43.5497 55.1995C42.6431 52.5437 42.1913 49.7045 42.2201 46.844L42.3192 37.0003L69.2825 37.3739L68.964 69.0003Z" fill="#F26F49"/>
<path id="&#60;Rectangle&#62;_4" d="M68.964 69.0003L60.5717 68.884C58.1329 68.8502 55.7237 68.2533 53.4816 67.1274C51.2394 66.0015 49.2084 64.3687 47.5043 62.3221C45.8001 60.2755 44.4564 57.8552 43.5497 55.1995C42.6431 52.5437 42.1913 49.7045 42.2201 46.844L42.3192 37.0003L69.2825 37.3739L68.964 69.0003Z" stroke="#181818" stroke-width="0.3" stroke-linecap="round" stroke-linejoin="round"/>
</g>
<g id="face">
<path id="&#60;Path&#62;_10" d="M72 32C72 32.3042 72 32.6084 72 32.8947C71.7841 37.0962 70.018 41.0684 67.0432 44.0432C64.0684 47.018 60.0962 48.7841 55.8947 49C55.8947 49 55.8947 49 55.8947 49H55C50.6421 49.006 46.4484 47.3383 43.2848 44.3412C40.1212 41.3441 38.2294 37.2465 38 32.8947C38 32.5905 38 32.2863 38 32C38 27.4913 39.7911 23.1673 42.9792 19.9792C46.1673 16.7911 50.4913 15 55 15C59.5087 15 63.8327 16.7911 67.0208 19.9792C70.2089 23.1673 72 27.4913 72 32V32Z" fill="#F26F49"/>
<path id="&#60;Path&#62;_11" d="M70 29.9948C70 30.3349 70 30.675 70 30.9951C69.7942 35.6921 68.1106 40.1328 65.2747 43.4585C62.4389 46.7842 58.6523 48.7586 54.647 49C54.647 49 54.647 49 54.647 49H53.7941C50.3304 49.0073 46.9568 47.706 44.1729 45.289C42.2744 42.2991 41.1706 38.7186 41 34.9962C41 34.6561 41 34.316 41 33.9959C41.0015 30.4799 41.8346 27.0333 43.4067 24.0395C44.9788 21.0456 47.2283 18.6219 49.9049 17.0379C52.5815 15.4539 55.5804 14.7717 58.5679 15.0673C61.5554 15.3628 64.4145 16.6244 66.827 18.7118C68.8933 21.9739 70.0062 25.9312 70 29.9948Z" fill="#F28649"/>
<g id="&#60;Group&#62;">
<path id="&#60;Path&#62;_12" d="M71.8949 33.9514C71.4792 38.0134 69.6568 41.7906 66.7556 44.603C63.8544 47.4155 60.065 49.0786 56.0695 49.2929C56.0695 49.1395 56.0695 48.9861 56.0695 48.8327C56.3966 34.8539 70.6395 34.0056 71.8949 33.9514Z" fill="white"/>
<path id="&#60;Path&#62;_13" d="M38.4757 33.9514C39.8284 34.0056 55.7245 34.8539 56.0782 48.8147C56.0782 48.959 56.0782 49.1125 56.0782 49.2659H55.1941C51.0469 49.2701 47.0448 47.7081 43.9582 44.8807C40.8716 42.0533 38.9188 38.1604 38.4757 33.9514V33.9514Z" fill="white"/>
</g>
<g id="&#60;Group&#62;_2">
<path id="&#60;Path&#62;_14" d="M38.4754 33.9514C38.4754 33.6626 38.4224 33.3648 38.4047 33.049C38.387 32.7331 38.4047 32.4353 38.4047 32.1465C38.4047 27.599 40.1745 23.2378 43.3246 20.0222C46.4748 16.8066 50.7473 15.0001 55.2023 15.0001C59.6573 15.0001 63.9298 16.8066 67.08 20.0222C70.2301 23.2378 71.9999 27.599 71.9999 32.1465C71.9999 32.4534 71.9999 32.7602 71.9999 33.049C71.9999 33.3378 71.9999 33.6446 71.9292 33.9514C71.5125 38.0193 69.685 41.8011 66.7766 44.6143C63.8682 47.4276 60.0704 49.087 56.0687 49.293V49.293H55.1846C51.0349 49.2942 47.0316 47.7275 43.9464 44.8947C40.8611 42.062 38.9122 38.1638 38.4754 33.9514V33.9514Z" stroke="#181818" stroke-width="0.3" stroke-linecap="round" stroke-linejoin="round"/>
<path id="&#60;Path&#62;_15" d="M38.3871 33.9514H38.4755C39.8281 34.0056 55.724 34.8539 56.0776 48.8147C56.0776 48.9681 56.0776 49.1215 56.0776 49.2749" stroke="#181818" stroke-width="0.3" stroke-linecap="round" stroke-linejoin="round"/>
<path id="&#60;Path&#62;_16" d="M71.9822 33.9514H71.8938C70.6384 33.9514 56.3958 34.8539 56.0775 48.8056C56.0775 48.95 56.0775 49.1034 56.0775 49.2568" stroke="#181818" stroke-width="0.3" stroke-linecap="round" stroke-linejoin="round"/>
</g>
<path id="&#60;Path&#62;_17" d="M56.5 50C57.8807 50 59 49.5523 59 49C59 48.4477 57.8807 48 56.5 48C55.1193 48 54 48.4477 54 49C54 49.5523 55.1193 50 56.5 50Z" fill="#181818"/>
<path id="&#60;Path&#62;_18" d="M45 26C46.4551 23.2572 48.5533 21.159 51 20" stroke="#181818" stroke-width="0.3" stroke-linecap="round" stroke-linejoin="round"/>
</g>
<g id="eyes">
<path id="&#60;Path&#62;_19" d="M48.7812 44.0002C49.2392 44.0002 49.6104 43.5525 49.6104 43.0002C49.6104 42.4479 49.2392 42.0002 48.7812 42.0002C48.3232 42.0002 47.9519 42.4479 47.9519 43.0002C47.9519 43.5525 48.3232 44.0002 48.7812 44.0002Z" fill="#181818"/>
<path id="&#60;Path&#62;_20" d="M61.2201 44.0002C61.6781 44.0002 62.0494 43.5525 62.0494 43.0002C62.0494 42.4479 61.6781 42.0002 61.2201 42.0002C60.7621 42.0002 60.3909 42.4479 60.3909 43.0002C60.3909 43.5525 60.7621 44.0002 61.2201 44.0002Z" fill="#181818"/>
</g>
</g>
</svg>
